X: 1
T:Bonton,The. HSJJ.164
M:2/4
L:1/8
Q:220
S:HSJ Jackson,Wyresdale,Lancs.1823
R:Cotillion
O:England
A:Lancashire
H:1823
Z:Chris Partington.
K:G
B/c/d/B/ GG|AGAG|B/c/d/B/ GG|ADD2|B/c/d/B/ GG|gfed|ceAc|dDD2:|!
|:dBed|cBdA|cAdc|BABG|B/c/d/B/ GG|AGAG|A/B/c/e/ d/c/B/A/|GGG2:|]
